img/header/facebook.svg

<svg width="40" height="40" viewBox="0 0 40 40" fill="none" xmlns="http://www.w3.org/2000/svg">
<g filter="url(#filter0_d)">
<path d="M30.59 9.37333C27.6733 6.47167 24.11 5 20 5C15.8517 5 12.2783 6.47333 9.37833 9.375C6.47333 12.2767 5 15.8533 5 20C5 24.1083 6.47167 27.6717 9.37333 30.59C12.275 33.5167 15.85 35 20 35C24.1117 35 27.675 33.5167 30.5933 30.595C33.5183 27.6733 35 24.1083 35 20C35 15.8533 33.5167 12.2767 30.59 9.37333ZM28.2367 28.2383C26.3417 30.1367 24.1767 31.2183 21.6667 31.5467V23.3333H25V20H21.6667V17.6667C21.6667 17.5352 21.6926 17.405 21.7429 17.2836C21.7933 17.1622 21.8671 17.0518 21.9601 16.959C22.0532 16.8661 22.1636 16.7925 22.2851 16.7423C22.4067 16.6922 22.5369 16.6664 22.6683 16.6667H25V13.3333H22.6717C21.435 13.3333 20.4033 13.7883 19.5767 14.7033C18.75 15.615 18.3333 16.7283 18.3333 18.05V20H15V23.3333H18.3333V31.55C15.7967 31.225 13.6233 30.1417 11.7383 28.2433C9.44667 25.9367 8.33333 23.24 8.33333 20C8.33333 16.7233 9.445 14.02 11.7367 11.7333C14.02 9.445 16.7233 8.33333 20 8.33333C23.2417 8.33333 25.9367 9.44667 28.2417 11.7383C30.5467 14.025 31.6667 16.7283 31.6667 20C31.6667 23.235 30.545 25.9317 28.2367 28.2383Z" fill="url(#paint0_linear)"/>
</g>
<defs>
<filter id="filter0_d" x="0" y="0" width="40" height="40" filterUnits="userSpaceOnUse" color-interpolation-filters="sRGB">
<feFlood flood-opacity="0" result="BackgroundImageFix"/>
<feColorMatrix in="SourceAlpha" type="matrix" values="0 0 0 0 0 0 0 0 0 0 0 0 0 0 0 0 0 0 127 0"/>
<feOffset/>
<feGaussianBlur stdDeviation="2.5"/>
<feColorMatrix type="matrix" values="0 0 0 0 1 0 0 0 0 1 0 0 0 0 1 0 0 0 1 0"/>
<feBlend mode="normal" in2="BackgroundImageFix" result="effect1_dropShadow"/>
<feBlend mode="normal" in="SourceGraphic" in2="effect1_dropShadow" result="shape"/>
</filter>
<linearGradient id="paint0_linear" x1="37.5" y1="27.5" x2="-1.5" y2="10" gradientUnits="userSpaceOnUse">
<stop stop-color="#0024E0"/>
<stop offset="1" stop-color="#00B5CE"/>
</linearGradient>
</defs>
</svg>

<svg width="40" height="40" fill="none" xmlns="http://www.w3.org/2000/svg"><g filter="url(#prefix__a)"><path d="M30.59 9.373C27.673 6.472 24.11 5 20 5c-4.148 0-7.722 1.473-10.622 4.375C6.473 12.277 5 15.853 5 20c0 4.108 1.472 7.672 4.373 10.59C12.275 33.517 15.85 35 20 35c4.112 0 7.675-1.483 10.593-4.405C33.518 27.673 35 24.108 35 20c0-4.147-1.483-7.723-4.41-10.627zm-2.353 18.865c-1.895 1.899-4.06 2.98-6.57 3.309v-8.214H25V20h-3.333v-2.333a1 1 0 0 1 1.001-1H25v-3.334h-2.328c-1.237 0-2.269.455-3.095 1.37-.827.912-1.244 2.025-1.244 3.347V20H15v3.333h3.333v8.217c-2.536-.325-4.71-1.408-6.595-3.307C9.447 25.937 8.333 23.24 8.333 20c0-3.277 1.112-5.98 3.404-8.267 2.283-2.288 4.986-3.4 8.263-3.4 3.242 0 5.937 1.114 8.242 3.405 2.305 2.287 3.425 4.99 3.425 8.262 0 3.235-1.122 5.932-3.43 8.238z" fill="url(#prefix__b)"/></g><defs><linearGradient id="prefix__b" x1="37.5" y1="27.5" x2="-1.5" y2="10" gradientUnits="userSpaceOnUse"><stop stop-color="#0024E0"/><stop offset="1" stop-color="#00B5CE"/></linearGradient><filter id="prefix__a" x="0" y="0" width="40" height="40" filterUnits="userSpaceOnUse" color-interpolation-filters="sRGB"><feFlood flood-opacity="0" result="BackgroundImageFix"/><feColorMatrix in="SourceAlpha" values="0 0 0 0 0 0 0 0 0 0 0 0 0 0 0 0 0 0 127 0"/><feOffset/><feGaussianBlur stdDeviation="2.5"/><feColorMatrix values="0 0 0 0 1 0 0 0 0 1 0 0 0 0 1 0 0 0 1 0"/><feBlend in2="BackgroundImageFix" result="effect1_dropShadow"/><feBlend in="SourceGraphic" in2="effect1_dropShadow" result="shape"/></filter></defs></svg>
